apps/web/app/src/assets/brandbook/logo/esquilo-invest-logo-horizontal.svg

<?xml version="1.0" encoding="UTF-8"?>
<svg aria-labelledby="title desc" role="img" version="1.1" viewBox="0 0 713.25 200.31" xmlns="http://www.w3.org/2000/svg">
  <title id="title">Esquilo Invest logo horizontal</title>
  <desc id="desc">Logo horizontal do Esquilo Invest com símbolo de esquilo estilizado em laranja e wordmark em grafite.</desc>
  <defs>
    <style>
      .brand {
        font-family: "Sora", "Inter", "Segoe UI", Arial, sans-serif;
        font-weight: 700;
        letter-spacing: -0.5px;
      }
    </style>
  </defs>
  <g transform="translate(-12,-3)">
    <path d="m118 78c0-34-26-58-60-58-27 0-46 16-46 38 17-8 33-10 46-8 14 3 22 13 22 29 0 17-9 28-22 39-10 8-16 20-16 34 0 25 18 44 42 50-19-5-33-21-33-42 0-12 5-22 14-29 15-12 27-27 27-50 0-13-4-24-12-33 15 6 26 18 38 30z" fill="#f56a2a"/>
    <path d="m97 202c-20-11-30-30-30-53 0-20 9-38 25-54l48-48c8-8 12-18 12-29 0-9 6-15 15-15 8 0 13 6 14 14 1 11 6 20 16 27 18 12 31 30 31 53 0 25-11 44-30 57-14 10-29 15-46 17v12c0 11 7 19 18 19z" fill="#f56a2a"/>
    <g fill="#fff">
      <path d="m127 202c-3-8-4-16-4-25 0-30 22-52 51-52 8 0 16 2 23 6-9-14-24-23-41-23-28 0-50 21-50 49 0 17 8 33 21 45z"/>
      <path d="m142 121c11 7 22 11 35 11 6 0 10 4 10 9s-4 8-10 8c-17 0-32-6-45-16-5-4-6-10-2-14s8-3 12 2z"/>
      <path d="m171 23c0 8-3 16-9 22-5-6-8-15-8-24 0-7 4-11 9-11s8 5 8 13z"/>
    </g>
    <circle cx="186" cy="88" r="8" fill="#0b1218"/>
    <path d="m223 97c8 1 13 7 13 14 0 6-4 10-11 12 1-7 0-17-2-26z" fill="#0b1218"/>
    <path d="m118 202c4-13 13-22 25-26-8 7-11 15-11 26z" fill="#f56a2a"/>
    <g transform="translate(305,92)" fill="#0b1218" font-size="112px">
      <text class="brand"><tspan font-family="Sora" font-weight="700">Esquilo</tspan></text>
      <text class="brand" y="110"><tspan font-family="Inter" font-weight="500">invest</tspan></text>
    </g>
  </g>
</svg>

<svg xmlns="http://www.w3.org/2000/svg" width="1400" height="420" viewBox="0 0 1400 420" role="img" aria-labelledby="title desc">
  <title id="title">Esquilo Invest logo horizontal</title>
  <desc id="desc">Logo horizontal do Esquilo Invest com símbolo de esquilo estilizado em laranja e wordmark em grafite.</desc>
  <defs>
    <style>
      .brand {
        font-family: "Sora", "Inter", "Segoe UI", Arial, sans-serif;
        font-weight: 700;
        letter-spacing: -0.5px;
      }
      .sub {
        font-family: "Inter", "Segoe UI", Arial, sans-serif;
        font-weight: 600;
        letter-spacing: 1.2px;
      }
    </style>
  </defs>

  <rect width="1400" height="420" fill="#FFFFFF"/>
  <g transform="translate(90 80)">
    <g transform="scale(1)">
      
  <!-- tail -->
  <path d="M118 78
           C118 44, 92 20, 58 20
           C31 20, 12 36, 12 58
           C29 50, 45 48, 58 50
           C72 53, 80 63, 80 79
           C80 96, 71 107, 58 118
           C48 126, 42 138, 42 152
           C42 177, 60 196, 84 202
           C65 197, 51 181, 51 160
           C51 148, 56 138, 65 131
           C80 119, 92 104, 92 81
           C92 68, 88 57, 80 48
           C95 54, 106 66, 118 78 Z"
        fill="#F56A2A"/>

  <!-- back + head -->
  <path d="M97 202
           C77 191, 67 172, 67 149
           C67 129, 76 111, 92 95
           L140 47
           C148 39, 152 29, 152 18
           C152 9, 158 3, 167 3
           C175 3, 180 9, 181 17
           C182 28, 187 37, 197 44
           C215 56, 228 74, 228 97
           C228 122, 217 141, 198 154
           C184 164, 169 169, 152 171
           L152 183
           C152 194, 159 202, 170 202
           L97 202 Z"
        fill="#F56A2A"/>

  <!-- belly cut -->
  <path d="M127 202
           C124 194, 123 186, 123 177
           C123 147, 145 125, 174 125
           C182 125, 190 127, 197 131
           C188 117, 173 108, 156 108
           C128 108, 106 129, 106 157
           C106 174, 114 190, 127 202 Z"
        fill="#FFFFFF"/>

  <!-- paw / arm -->
  <path d="M142 121
           C153 128, 164 132, 177 132
           C183 132, 187 136, 187 141
           C187 146, 183 149, 177 149
           C160 149, 145 143, 132 133
           C127 129, 126 123, 130 119
           C134 115, 138 116, 142 121 Z"
        fill="#FFFFFF"/>

  <!-- ear cut -->
  <path d="M171 23
           C171 31, 168 39, 162 45
           C157 39, 154 30, 154 21
           C154 14, 158 10, 163 10
           C168 10, 171 15, 171 23 Z"
        fill="#FFFFFF"/>

  <!-- eye -->
  <circle cx="186" cy="88" r="8" fill="#0B1218"/>

  <!-- nose -->
  <path d="M223 97
           C231 98, 236 104, 236 111
           C236 117, 232 121, 225 123
           C226 116, 225 106, 223 97 Z"
        fill="#0B1218"/>

  <!-- leg separation -->
  <path d="M118 202
           C122 189, 131 180, 143 176
           C135 183, 132 191, 132 202
           L118 202 Z"
        fill="#F56A2A"/>

    </g>

    <g transform="translate(305 92)">
      <text class="brand" x="0" y="0" font-size="112" fill="#0B1218">Esquilo</text>
      <text class="brand" x="0" y="110" font-size="112" fill="#0B1218">Invest</text>
    </g>
  </g>
</svg>
